the-plus-addons-for-block-editor/assets/images/scroll-nav/6.svg

<svg xmlns="http://www.w3.org/2000/svg" width="1000" height="700" fill="none" viewBox="0 0 1000 700"><g clip-path="url(#a)"><mask id="b" width="1000" height="700" x="0" y="0" maskUnits="userSpaceOnUse" style="mask-type:luminance"><path fill="#fff" d="M1000 0H0v700h1000V0Z"/></mask><g mask="url(#b)"><path fill="#fff" d="M1000 0H0v700h1000V0Z"/><mask id="c" width="85" height="86" x="186" y="307" maskUnits="userSpaceOnUse" style="mask-type:luminance"><path fill="#fff" d="M270.654 307.672H186v84.654h84.654v-84.654Z"/></mask><g mask="url(#c)"><mask id="d" width="85" height="86" x="186" y="307" maskUnits="userSpaceOnUse" style="mask-type:luminance"><path fill="#fff" d="M270.654 307.67H186v84.654h84.654V307.67Z"/></mask><g mask="url(#d)"><path fill="#000" d="M268.372 344.491a.013.013 0 0 0-.006-.007l-34.533-34.53a7.735 7.735 0 0 0-5.509-2.284 7.746 7.746 0 0 0-5.511 2.282l-34.515 34.514c-.012.011-.022.025-.034.035-3.024 3.041-3.018 7.973.014 11.005a7.75 7.75 0 0 0 5.172 2.274c.08.007.159.012.241.012h1.376v25.411c0 5.029 4.091 9.121 9.121 9.121h13.51a2.481 2.481 0 0 0 2.481-2.48v-19.923a4.165 4.165 0 0 1 4.16-4.162h7.969a4.167 4.167 0 0 1 4.162 4.162v19.923a2.48 2.48 0 0 0 2.48 2.48h13.509c5.03 0 9.122-4.092 9.122-9.121v-25.411h1.277a7.743 7.743 0 0 0 5.511-2.284c3.036-3.038 3.036-7.978.003-11.017Z"/></g></g><path fill="#000" d="M339.357 370.317h-8.036v-14.484H316.59v14.484h-8.012v-35.565h8.012v14.187h14.731v-14.187h8.036v35.565Zm23.188.62c-5.091 0-9.242-1.652-12.449-4.959-3.209-3.324-4.812-7.648-4.812-12.972 0-5.621 1.629-10.167 4.886-13.64 3.258-3.472 7.572-5.208 12.946-5.208 5.075 0 9.176 1.661 12.301 4.985 3.141 3.323 4.712 7.705 4.712 13.145 0 5.587-1.628 10.092-4.886 13.516-3.24 3.421-7.473 5.133-12.698 5.133Zm.347-29.885c-2.81 0-5.042 1.059-6.696 3.175-1.652 2.099-2.48 4.886-2.48 8.357 0 3.522.828 6.308 2.48 8.359 1.654 2.05 3.82 3.074 6.498 3.074 2.761 0 4.952-.992 6.573-2.976 1.62-2 2.431-4.769 2.431-8.308 0-3.686-.786-6.556-2.357-8.606-1.571-2.05-3.72-3.075-6.449-3.075Zm63.69 29.265h-7.911v-21.278c0-2.3.098-4.837.298-7.614h-.2c-.413 2.182-.786 3.752-1.116 4.712l-8.333 24.18h-6.547l-8.483-23.933c-.23-.645-.602-2.298-1.115-4.959h-.224c.215 3.505.323 6.579.323 9.225v19.667h-7.217v-35.565h11.731l7.267 21.081c.579 1.686 1 3.381 1.265 5.084h.149c.445-1.967.917-3.679 1.413-5.133l7.267-21.032h11.433v35.565Zm29.414 0h-21.329v-35.565h20.51v6.524h-12.5v7.912h11.633v6.496h-11.633v8.135h13.319v6.498Z"/><g opacity=".35"><mask id="e" width="86" height="86" x="542" y="307" maskUnits="userSpaceOnUse" style="mask-type:luminance"><path fill="#fff" d="M627.441 307.279H542v85.442h85.441v-85.442Z"/></mask><g mask="url(#e)"><path fill="#000" d="M606.092 389.158h-42.721c-.945 0-1.85-.376-2.517-1.044a3.555 3.555 0 0 1 0-5.034 3.555 3.555 0 0 1 2.517-1.042h42.721a3.56 3.56 0 1 1 0 7.12Zm17.799-60.521v28.481a17.791 17.791 0 0 1-5.214 12.585 17.791 17.791 0 0 1-12.585 5.214h-42.721a17.797 17.797 0 0 1-17.801-17.799v-28.481a17.798 17.798 0 0 1 17.801-17.801h42.721a17.81 17.81 0 0 1 12.585 5.214 17.784 17.784 0 0 1 5.214 12.587Zm-64.081 7.12a3.564 3.564 0 0 0 3.561 3.56h21.36a3.57 3.57 0 0 0 2.518-1.042 3.563 3.563 0 0 0-2.518-6.079h-21.36c-.945 0-1.85.376-2.517 1.044a3.556 3.556 0 0 0-1.044 2.517Zm49.841 14.24a3.56 3.56 0 0 0-3.559-3.559h-42.721a3.558 3.558 0 1 0 0 7.119h42.721a3.56 3.56 0 0 0 3.559-3.56Z"/></g><path fill="#000" d="M666.328 370.505V334.61h10.212c3.105 0 5.566.758 7.386 2.277 1.818 1.52 2.727 3.497 2.727 5.933 0 2.036-.55 3.804-1.651 5.306-1.102 1.502-2.621 2.57-4.556 3.204v.101c2.42.284 4.354 1.202 5.807 2.753 1.452 1.536 2.177 3.539 2.177 6.008 0 3.071-1.1 5.557-3.303 7.459-2.203 1.902-4.981 2.854-8.336 2.854h-10.463Zm4.206-32.09v11.589h4.304c2.304 0 4.115-.55 5.432-1.652 1.32-1.118 1.978-2.686 1.978-4.706 0-3.488-2.294-5.231-6.884-5.231h-4.83Zm0 15.369V366.7h5.707c2.469 0 4.38-.583 5.731-1.752 1.369-1.169 2.053-2.77 2.053-4.805 0-4.24-2.887-6.359-8.661-6.359h-4.83Zm43.805 16.721h-18.624V334.61h4.205v32.09h14.419v3.805Zm18.223.602c-5.09 0-9.171-1.678-12.24-5.033-3.056-3.354-4.582-7.717-4.582-13.091 0-5.774 1.561-10.38 4.681-13.818 3.12-3.438 7.368-5.155 12.741-5.155 4.957 0 8.946 1.668 11.965 5.005 3.038 3.337 4.556 7.702 4.556 13.091 0 5.858-1.552 10.489-4.655 13.893-3.105 3.404-7.259 5.108-12.466 5.108Zm.299-33.293c-3.771 0-6.833 1.36-9.186 4.08-2.352 2.721-3.529 6.29-3.529 10.713 0 4.422 1.143 7.985 3.429 10.689 2.304 2.688 5.298 4.031 8.987 4.031 3.937 0 7.042-1.285 9.312-3.855 2.269-2.57 3.404-6.168 3.404-10.79 0-4.738-1.101-8.402-3.305-10.988-2.203-2.587-5.24-3.88-9.112-3.88Zm50.715 30.237c-3.604 2.037-7.61 3.056-12.015 3.056-5.123 0-9.27-1.653-12.44-4.958-3.155-3.303-4.732-7.676-4.732-13.117 0-5.557 1.751-10.112 5.256-13.667 3.522-3.57 7.977-5.355 13.368-5.355 3.905 0 7.184.634 9.836 1.902v4.655c-2.903-1.836-6.341-2.753-10.312-2.753-4.021 0-7.318 1.385-9.888 4.155-2.57 2.77-3.855 6.357-3.855 10.764 0 4.539 1.193 8.11 3.58 10.713 2.386 2.587 5.624 3.881 9.713 3.881 2.803 0 5.231-.561 7.283-1.678v-10.062h-7.859v-3.805h12.065v16.269Zm6.683 1.002v-4.956a9.712 9.712 0 0 0 2.028 1.352c.802.4 1.636.743 2.504 1.027.883.266 1.768.475 2.652.625.885.151 1.704.226 2.454.226 2.587 0 4.514-.477 5.782-1.427 1.285-.969 1.928-2.353 1.928-4.156 0-.967-.217-1.811-.651-2.527-.417-.718-1.002-1.369-1.753-1.954-.751-.601-1.643-1.168-2.678-1.702a144.049 144.049 0 0 0-3.305-1.727 55.553 55.553 0 0 1-3.503-1.928 15.21 15.21 0 0 1-2.83-2.153 9.261 9.261 0 0 1-1.902-2.652c-.451-1.001-.675-2.17-.675-3.505 0-1.635.359-3.053 1.077-4.255a9.172 9.172 0 0 1 2.828-3.004c1.167-.784 2.495-1.369 3.98-1.753a18.462 18.462 0 0 1 4.581-.574c3.537 0 6.116.425 7.734 1.276v4.73c-2.119-1.468-4.839-2.202-8.159-2.202-.92 0-1.837.1-2.755.3a7.54 7.54 0 0 0-2.452.927 5.437 5.437 0 0 0-1.753 1.676c-.45.685-.676 1.519-.676 2.503 0 .918.166 1.711.501 2.379.351.666.86 1.276 1.526 1.827.668.55 1.478 1.085 2.428 1.603.969.516 2.078 1.083 3.329 1.702 1.285.634 2.504 1.3 3.655 2.002a16.712 16.712 0 0 1 3.03 2.328 10.134 10.134 0 0 1 2.052 2.828c.517 1.035.776 2.22.776 3.554 0 1.769-.35 3.271-1.051 4.506a8.414 8.414 0 0 1-2.804 2.979c-1.169.767-2.52 1.319-4.055 1.652a21.739 21.739 0 0 1-4.856.527c-.568 0-1.268-.052-2.102-.151a23.528 23.528 0 0 1-2.555-.401 21.308 21.308 0 0 1-2.478-.626c-.767-.266-1.384-.559-1.852-.876Z"/></g></g></g><defs><clipPath id="a"><path fill="#fff" d="M0 0h1000v700H0z"/></clipPath></defs></svg>

<svg width="1000" height="700" viewBox="0 0 1000 700" fill="none" xmlns="http://www.w3.org/2000/svg">
<g clip-path="url(#clip0_2004_2)">
<mask id="mask0_2004_2" style="mask-type:luminance" maskUnits="userSpaceOnUse" x="0" y="0" width="1000" height="700">
<path d="M1000 0H0V700H1000V0Z" fill="white"/>
</mask>
<g mask="url(#mask0_2004_2)">
<path d="M1000 0H0V700H1000V0Z" fill="white"/>
<mask id="mask1_2004_2" style="mask-type:luminance" maskUnits="userSpaceOnUse" x="186" y="307" width="85" height="86">
<path d="M270.654 307.672H186V392.326H270.654V307.672Z" fill="white"/>
</mask>
<g mask="url(#mask1_2004_2)">
<mask id="mask2_2004_2" style="mask-type:luminance" maskUnits="userSpaceOnUse" x="186" y="307" width="85" height="86">
<path d="M270.654 307.67H186V392.324H270.654V307.67Z" fill="white"/>
</mask>
<g mask="url(#mask2_2004_2)">
<path d="M268.372 344.491C268.371 344.488 268.369 344.486 268.366 344.484L233.833 309.954C232.362 308.481 230.405 307.67 228.324 307.67C226.242 307.67 224.285 308.481 222.813 309.952L188.298 344.466C188.286 344.477 188.276 344.491 188.264 344.501C185.24 347.542 185.246 352.474 188.278 355.506C189.664 356.893 191.493 357.695 193.45 357.78C193.53 357.787 193.609 357.792 193.691 357.792H195.067V383.203C195.067 388.232 199.158 392.324 204.188 392.324H217.698C219.068 392.324 220.179 391.213 220.179 389.844V369.921C220.179 367.625 222.045 365.759 224.339 365.759H232.308C234.602 365.759 236.47 367.625 236.47 369.921V389.844C236.47 391.213 237.58 392.324 238.95 392.324H252.459C257.489 392.324 261.581 388.232 261.581 383.203V357.792H262.858C264.939 357.792 266.896 356.981 268.369 355.508C271.405 352.47 271.405 347.53 268.372 344.491Z" fill="black"/>
</g>
</g>
<path d="M339.357 370.317H331.321V355.833H316.59V370.317H308.578V334.752H316.59V348.939H331.321V334.752H339.357V370.317ZM362.545 370.937C357.454 370.937 353.303 369.285 350.096 365.978C346.887 362.654 345.284 358.33 345.284 353.006C345.284 347.385 346.913 342.839 350.17 339.366C353.428 335.894 357.742 334.158 363.116 334.158C368.191 334.158 372.292 335.819 375.417 339.143C378.558 342.466 380.129 346.848 380.129 352.288C380.129 357.875 378.501 362.38 375.243 365.804C372.003 369.225 367.77 370.937 362.545 370.937ZM362.892 341.052C360.082 341.052 357.85 342.111 356.196 344.227C354.544 346.326 353.716 349.113 353.716 352.584C353.716 356.106 354.544 358.892 356.196 360.943C357.85 362.993 360.016 364.017 362.694 364.017C365.455 364.017 367.646 363.025 369.267 361.041C370.887 359.041 371.698 356.272 371.698 352.733C371.698 349.047 370.912 346.177 369.341 344.127C367.77 342.077 365.621 341.052 362.892 341.052ZM426.582 370.317H418.671V349.039C418.671 346.739 418.769 344.202 418.969 341.425H418.769C418.356 343.607 417.983 345.177 417.653 346.137L409.32 370.317H402.773L394.29 346.384C394.06 345.739 393.688 344.086 393.175 341.425H392.951C393.166 344.93 393.274 348.004 393.274 350.65V370.317H386.057V334.752H397.788L405.055 355.833C405.634 357.519 406.055 359.214 406.32 360.917H406.469C406.914 358.95 407.386 357.238 407.882 355.784L415.149 334.752H426.582V370.317ZM455.996 370.317H434.667V334.752H455.177V341.276H442.677V349.188H454.31V355.684H442.677V363.819H455.996V370.317Z" fill="black"/>
<g opacity="0.35">
<mask id="mask3_2004_2" style="mask-type:luminance" maskUnits="userSpaceOnUse" x="542" y="307" width="86" height="86">
<path d="M627.441 307.279H542V392.721H627.441V307.279Z" fill="white"/>
</mask>
<g mask="url(#mask3_2004_2)">
<path d="M606.092 389.158H563.371C562.426 389.158 561.521 388.782 560.854 388.114C560.186 387.448 559.81 386.542 559.81 385.597C559.81 384.654 560.186 383.748 560.854 383.08C561.521 382.412 562.426 382.038 563.371 382.038H606.092C607.035 382.038 607.941 382.412 608.609 383.08C609.275 383.748 609.651 384.654 609.651 385.597C609.651 386.542 609.275 387.448 608.609 388.114C607.941 388.782 607.035 389.158 606.092 389.158ZM623.891 328.637V357.118C623.891 359.455 623.431 361.769 622.536 363.929C621.642 366.089 620.331 368.051 618.677 369.703C617.025 371.357 615.063 372.668 612.903 373.562C610.743 374.457 608.429 374.917 606.092 374.917H563.371C561.033 374.917 558.718 374.457 556.558 373.562C554.4 372.668 552.436 371.357 550.784 369.703C547.445 366.366 545.57 361.837 545.57 357.118V328.637C545.57 323.915 547.445 319.389 550.784 316.05C554.121 312.712 558.65 310.836 563.371 310.836H606.092C608.429 310.836 610.743 311.297 612.903 312.191C615.063 313.086 617.025 314.397 618.677 316.05C620.331 317.704 621.642 319.665 622.536 321.825C623.431 323.985 623.891 326.299 623.891 328.637ZM559.81 335.757C559.81 336.701 560.186 337.606 560.854 338.275C561.521 338.941 562.426 339.317 563.371 339.317H584.731C585.675 339.317 586.58 338.941 587.249 338.275C587.915 337.606 588.291 336.701 588.291 335.757C588.291 334.812 587.915 333.907 587.249 333.24C586.58 332.572 585.675 332.196 584.731 332.196H563.371C562.426 332.196 561.521 332.572 560.854 333.24C560.186 333.907 559.81 334.812 559.81 335.757ZM609.651 349.997C609.651 349.052 609.275 348.148 608.609 347.48C607.941 346.812 607.035 346.438 606.092 346.438H563.371C562.426 346.438 561.521 346.812 560.854 347.48C560.186 348.148 559.81 349.052 559.81 349.997C559.81 350.942 560.186 351.846 560.854 352.514C561.521 353.182 562.426 353.557 563.371 353.557H606.092C607.035 353.557 607.941 353.182 608.609 352.514C609.275 351.846 609.651 350.942 609.651 349.997Z" fill="black"/>
</g>
<path d="M666.328 370.505V334.61H676.54C679.645 334.61 682.106 335.368 683.926 336.887C685.744 338.407 686.653 340.384 686.653 342.82C686.653 344.856 686.103 346.624 685.002 348.126C683.9 349.628 682.381 350.696 680.446 351.33V351.431C682.866 351.715 684.8 352.633 686.253 354.184C687.705 355.72 688.43 357.723 688.43 360.192C688.43 363.263 687.33 365.749 685.127 367.651C682.924 369.553 680.146 370.505 676.791 370.505H666.328ZM670.534 338.415V350.004H674.838C677.142 350.004 678.953 349.454 680.27 348.352C681.59 347.234 682.248 345.666 682.248 343.646C682.248 340.158 679.954 338.415 675.364 338.415H670.534ZM670.534 353.784V366.7H676.241C678.71 366.7 680.621 366.117 681.972 364.948C683.341 363.779 684.025 362.178 684.025 360.143C684.025 355.903 681.138 353.784 675.364 353.784H670.534ZM714.339 370.505H695.715V334.61H699.92V366.7H714.339V370.505ZM732.562 371.107C727.472 371.107 723.391 369.429 720.322 366.074C717.266 362.72 715.74 358.357 715.74 352.983C715.74 347.209 717.301 342.603 720.421 339.165C723.541 335.727 727.789 334.01 733.162 334.01C738.119 334.01 742.108 335.678 745.127 339.015C748.165 342.352 749.683 346.717 749.683 352.106C749.683 357.964 748.131 362.595 745.028 365.999C741.923 369.403 737.769 371.107 732.562 371.107ZM732.861 337.814C729.09 337.814 726.028 339.174 723.675 341.894C721.323 344.615 720.146 348.184 720.146 352.607C720.146 357.029 721.289 360.592 723.575 363.296C725.879 365.984 728.873 367.327 732.562 367.327C736.499 367.327 739.604 366.042 741.874 363.472C744.143 360.902 745.278 357.304 745.278 352.682C745.278 347.944 744.177 344.28 741.973 341.694C739.77 339.107 736.733 337.814 732.861 337.814ZM783.576 368.051C779.972 370.088 775.966 371.107 771.561 371.107C766.438 371.107 762.291 369.454 759.121 366.149C755.966 362.846 754.389 358.473 754.389 353.032C754.389 347.475 756.14 342.92 759.645 339.365C763.167 335.795 767.622 334.01 773.013 334.01C776.918 334.01 780.197 334.644 782.849 335.912V340.567C779.946 338.731 776.508 337.814 772.537 337.814C768.516 337.814 765.219 339.199 762.649 341.969C760.079 344.739 758.794 348.326 758.794 352.733C758.794 357.272 759.987 360.843 762.374 363.446C764.76 366.033 767.998 367.327 772.087 367.327C774.89 367.327 777.318 366.766 779.37 365.649V355.587H771.511V351.782H783.576V368.051ZM790.259 369.053V364.097C790.826 364.598 791.503 365.049 792.287 365.449C793.089 365.849 793.923 366.192 794.791 366.476C795.674 366.742 796.559 366.951 797.443 367.101C798.328 367.252 799.147 367.327 799.897 367.327C802.484 367.327 804.411 366.85 805.679 365.9C806.964 364.931 807.607 363.547 807.607 361.744C807.607 360.777 807.39 359.933 806.956 359.217C806.539 358.499 805.954 357.848 805.203 357.263C804.452 356.662 803.56 356.095 802.525 355.561C801.506 355.011 800.406 354.435 799.22 353.834C797.969 353.2 796.8 352.557 795.717 351.906C794.632 351.255 793.688 350.537 792.887 349.753C792.087 348.969 791.453 348.085 790.985 347.101C790.534 346.1 790.31 344.931 790.31 343.596C790.31 341.961 790.669 340.543 791.387 339.341C792.103 338.123 793.046 337.122 794.215 336.337C795.382 335.553 796.71 334.968 798.195 334.584C799.697 334.201 801.223 334.01 802.776 334.01C806.313 334.01 808.892 334.435 810.51 335.286V340.016C808.391 338.548 805.671 337.814 802.351 337.814C801.431 337.814 800.514 337.914 799.596 338.114C798.678 338.297 797.861 338.607 797.144 339.041C796.426 339.475 795.842 340.033 795.391 340.717C794.941 341.402 794.715 342.236 794.715 343.22C794.715 344.138 794.881 344.931 795.216 345.599C795.567 346.265 796.076 346.875 796.742 347.426C797.41 347.976 798.22 348.511 799.17 349.029C800.139 349.545 801.248 350.112 802.499 350.731C803.784 351.365 805.003 352.031 806.154 352.733C807.306 353.434 808.316 354.21 809.184 355.061C810.051 355.912 810.736 356.855 811.236 357.889C811.753 358.924 812.012 360.109 812.012 361.443C812.012 363.212 811.662 364.714 810.961 365.949C810.276 367.168 809.341 368.161 808.157 368.928C806.988 369.695 805.637 370.247 804.102 370.58C802.566 370.931 800.948 371.107 799.246 371.107C798.678 371.107 797.978 371.055 797.144 370.956C796.308 370.873 795.457 370.739 794.589 370.555C793.723 370.389 792.896 370.18 792.111 369.929C791.344 369.663 790.727 369.37 790.259 369.053Z" fill="black"/>
</g>
</g>
</g>
<defs>
<clipPath id="clip0_2004_2">
<rect width="1000" height="700" fill="white"/>
</clipPath>
</defs>
</svg>
